X: 17
T: No_25_Doctor_Jim's_Song.krn
N: Derived from No_25_Doctor_Jim's_Song.krn
%%abc-version 2.0
%%abcx-abcm2ps-target-version 5.9.1 (29 Sep 2008)
%%abc-creator hum2abc beta
%%abcx-conversion-date 2019/03/15 08:26:49
%%humdrum-veritas 4072053719
%%humdrum-veritas-data 4057160409
%%linebreak <none>
%%barnumbers 0
L: 1/8
M: 2/4
%%staves {1 2}
V: 1 clef=bass
V: 2 clef=bass
K: G
[V:1] [K:clef=bass][M:2/4]D3/D/ D3/E/ ]|:  
[V:2] [K:clef=bass][M:2/4]G,,G,, G,,G,, ]|:  
[V:1] (3DB,D A,A, | 
[V:2] G,,G,,z2 | 
[V:1] B,3/B,/ B,3/D/ | 
[V:2] z4 | 
[V:1] (3B,A,B, A,A,/ z/ | 
[V:2] z4 | 
[V:1] B,4 ||  
[V:2] z4 ||  
[V:1] [M:3/8]A,//A,3//A,//A,3//B, ||  
[V:2] [M:3/8]z3 ||  
[V:1] [M:2/4]A,3B, ||  
[V:2] [M:2/4]z4 ||  
[V:1] [M:3/8]G,//G,3//G,3//G,//A, ||  
[V:2] [M:3/8]z3 ||  
[V:1] [M:2/4]A,4 ||  
[V:2] [M:2/4]z4 ||  
[V:1] [M:3/8]G,//G,3//G,//G,3//A, ||  
[V:2] [M:3/8]z3 ||  
[V:1] [M:2/4]G,4 | 
[V:2] [M:2/4]z4 | 
[V:1] G,/G,/A,/A,/z2 :|]  
[V:2] z4 :|]  



